assets/efishery/genset-fill.svg

<svg width="24" height="25" viewBox="0 0 24 25" fill="none" xmlns="http://www.w3.org/2000/svg">
<path d="M5.5 8.02344V10.5234H9V8.02344H5.5Z" fill="#1D1D1D"/>
<path fill-rule="evenodd" clip-rule="evenodd" d="M4.75 2.27344C4.19772 2.27344 3.75 2.72115 3.75 3.27344C3.75 3.35976 3.76094 3.44353 3.7815 3.52344H1.75C1.33579 3.52344 1 3.85922 1 4.27344V16.2734C1 16.6877 1.33579 17.0234 1.75 17.0234H3.75V17.5234H1.75C1.33579 17.5234 1 17.8592 1 18.2734V22.2734C1 22.6877 1.33579 23.0234 1.75 23.0234H21.75C22.1642 23.0234 22.5 22.6877 22.5 22.2734V18.2734C22.5 17.8592 22.1642 17.5234 21.75 17.5234H19.75V17.0234H21.75C22.1642 17.0234 22.5 16.6877 22.5 16.2734V4.27344C22.5 3.85922 22.1642 3.52344 21.75 3.52344H19.7185C19.7391 3.44353 19.75 3.35976 19.75 3.27344C19.75 2.72115 19.3023 2.27344 18.75 2.27344C18.1977 2.27344 17.75 2.72115 17.75 3.27344C17.75 3.35976 17.7609 3.44353 17.7815 3.52344H5.7185C5.73906 3.44353 5.75 3.35976 5.75 3.27344C5.75 2.72115 5.30228 2.27344 4.75 2.27344ZM17.75 17.0234H5.75V17.5234H17.75V17.0234ZM11.5 5.02344V13.2734C11.5 13.6877 11.8358 14.0234 12.25 14.0234H19.25C19.6642 14.0234 20 13.6877 20 13.2734V5.02344H18.5V12.5234H13V5.02344H11.5ZM4 7.27344C4 6.85922 4.33579 6.52344 4.75 6.52344H9.75C10.1642 6.52344 10.5 6.85922 10.5 7.27344V11.2734C10.5 11.6877 10.1642 12.0234 9.75 12.0234H4.75C4.33579 12.0234 4 11.6877 4 11.2734V7.27344ZM4.25 12.7734C3.97386 12.7734 3.75 12.9973 3.75 13.2734C3.75 13.5496 3.97386 13.7734 4.25 13.7734H10.25C10.5261 13.7734 10.75 13.5496 10.75 13.2734C10.75 12.9973 10.5261 12.7734 10.25 12.7734H4.25ZM16.4005 5.5938C16.7759 5.76896 16.9381 6.21524 16.763 6.5906L15.9276 8.38058H16.75C17.0224 8.38058 17.2733 8.52824 17.4056 8.76634C17.5379 9.00444 17.5307 9.29554 17.3868 9.5268L16.0535 11.6697C15.8346 12.0214 15.3721 12.1291 15.0204 11.9102C14.6688 11.6914 14.561 11.2289 14.7799 10.8772L15.4 9.88058H14.75C14.4937 9.88058 14.2551 9.74967 14.1174 9.53346C13.9797 9.31725 13.962 9.04569 14.0704 8.81341L15.4037 5.95627C15.5789 5.58092 16.0251 5.41863 16.4005 5.5938Z" fill="#1D1D1D"/>
</svg>

<svg viewBox="0 0 24 25" xmlns="http://www.w3.org/2000/svg">
  <path d="M5.5 8.023v2.5H9v-2.5H5.5z"/>
  <path fill-rule="evenodd" clip-rule="evenodd" d="M4.75 2.273a1 1 0 0 0-.969 1.25H1.75a.75.75 0 0 0-.75.75v12c0 .415.336.75.75.75h2v.5h-2a.75.75 0 0 0-.75.75v4c0 .415.336.75.75.75h20a.75.75 0 0 0 .75-.75v-4a.75.75 0 0 0-.75-.75h-2v-.5h2a.75.75 0 0 0 .75-.75v-12a.75.75 0 0 0-.75-.75h-2.032a1 1 0 1 0-1.936 0H5.718a1.002 1.002 0 0 0-.968-1.25zm13 14.75h-12v.5h12v-.5zm-6.25-12v8.25c0 .415.336.75.75.75h7a.75.75 0 0 0 .75-.75v-8.25h-1.5v7.5H13v-7.5h-1.5zM4 7.273a.75.75 0 0 1 .75-.75h5a.75.75 0 0 1 .75.75v4a.75.75 0 0 1-.75.75h-5a.75.75 0 0 1-.75-.75v-4zm.25 5.5a.5.5 0 0 0 0 1h6a.5.5 0 1 0 0-1h-6zm12.15-7.18a.75.75 0 0 1 .363.998l-.835 1.79h.822a.75.75 0 0 1 .637 1.146l-1.334 2.143a.75.75 0 0 1-1.273-.793l.62-.996h-.65a.75.75 0 0 1-.68-1.068l1.334-2.857a.75.75 0 0 1 .997-.362z"/>
</svg>
